!!!COM: Scriabin, Alexander
!!!OTL@@FR: Prélude
!!!OTL@@EN: Prelude
!!!OPR@@FR: 2 Morceaux
!!!OPR@@EN: 2 Pieces
!!!OPS: 59
!!!ONM: 2
!!!ODT: 1910
!!!AGN: Prelude
**kern	**kern	**dynam
*staff2	*staff1	*staff1/2
*Ipiano	*Ipiano	*
*clefF4	*clefG2	*
*k[]	*k[]	*
*X:	*X:	*
*M6/8	*M6/8	*
16AAALL 16AA	4.G 4.c 4.f#X	p
16EEE-XJJ 16EE-X	.	.
8r	.	.
8r	.	.
=1	=1	=1
16CCLL 16C	8B-X 8e-X	.
16GGGJJ 16GG	.	.
8E-X 8B-X 8e-X	4d 4dd	.
8r	.	.
*	*^	*
16AAALL 16AA	8cL	4.G 4.f#X	.
16EEE-XJJ 16EE-X	.	.	.
8r	8c#X	.	.
8r	8cnJ	.	.
=2	=2	=2	=2
16CCLL 16C	8BnL	4e-X	.
16GGGJJ 16GG	.	.	.
8r	8B-XJ	.	.
*	*v	*v	*
[8E-X [8B-X [8e-X	[8d [8dd	.
8E-] 8B-] 8e-]	8dL] 8dd]	.
8r	8b-X	.
8r	8aJ	.
=3	=3	=3
4r	40%3ddL	.
.	40%3b-X	.
.	40%3a	.
.	40%3f#X	.
8r	.	.
.	40%3e-XJ	.
*	*^	*
16AAALL 16AA	8cL	4.G 4.f#	<
16EEE-XJJ 16EE-X	.	.	.
8r	8c#X	.	.
8r	8cnJ	.	.
!!LO:LB:g=original
=4	=4	=4	=4
16CCLL 16C	8BnL	4e-X	.
16GGGJJ 16GG	.	.	.
8r	8B-XJ	.	.
*	*v	*v	*
[8E-X [8B-X [8e-X	[8d [8dd	.
8E-] 8B-] 8e-]	8dL] 8dd]	.
8r	8b-X	.
8r	8aJ	.
=5	=5	=5
4r	32%3ddL	.
.	32%3b-X	.
.	32%3a	.
8r	.	.
.	32%3f#XJ	.
*	*^	*
16CCLL 16C	8e-XL	4.B-X 4.a	.
16GGG-XJJ 16GG-X	.	.	.
8r	8en	.	.
8r	8e-XJ	.	.
=6	=6	=6	=6
16EE-XLL 16E-X	8dL	4g-X	.
16BBB-XJJ 16BB-X	.	.	.
8r	8d-XJ	.	.
*	*v	*v	*
[8G-X [8d-X [8g-X	[8f [8ff	.
8G-] 8d-] 8g-]	8fL] 8ff]	.
8r	8dd-X	.
8r	8ccJ	.
=7	=7	=7
4r	32%3ffL	.
.	32%3dd-X	.
.	32%3cc	.
8r	.	.
.	32%3aJ	.
16DD#XLL 16D#X	4.c#X 4.f#X 4.b#X	.
16AAAJJ 16AA	.	.
8r	.	.
8r	.	.
!!LO:LB:g=original
=8	=8	=8
16BBB#XLL 16BB#X	8A 8e 8a	.
16FFF#XJJ 16FF#X	.	.
4A 4e 4a	4g#X 4gg#X	.
*	*^	*
16DD#XLL 16D#X	8f#XL	4.c#X 4.b#X	.
16AAAJJ 16AA	.	.	.
8r	8f##X	.	.
8r	8f#XJ	.	.
=9	=9	=9	=9
16BBB#XLL 16BB#X	8e#XL	4A 4a	.
16FFF#XJJ 16FF#X	.	.	.
8r	8enJ	.	.
8A 8e 8a	8ryy	8g#X 8gg#X	.
16DD#XLL 16D#X	8f#XL	4.c#X 4.b#X	.
16AAAJJ 16AA	.	.	.
8r	8f##X	.	.
8r	8f#XJ	.	.
=10	=10	=10	=10
16BBB#XLL 16BB#X	8e#XL	4A 4a	.
16FFF#XJJ 16FF#X	.	.	.
8r	8enJ	.	.
8A 8e 8a	8r	8g#X 8gg#X	.
16BBB#LL 16BB#	8e#XL	4A 4a	.
16FFF#JJ 16FF#	.	.	.
8r	8enJ	.	.
8A 8e 8a	8r	8g# 8gg#	.
*	*v	*v	*
=11	=11	=11
8r	8r	.
8r	8r	.
8A 8e 8a	8g#X 8b#X 8gg#X	p <
8AL 8e 8a	8g#L 8b# 8gg#	(
8BBB#X 8BB#X	8g# 8b# 8gg#	(
8FFF#XJ 8FF#X	8g#J 8b# 8gg#	[
!!LO:LB:g=original
=12	=12	=12
*	*^	*
4.A 4.e 4.a	4.g#X 4.b#X	8gg#XL	f
.	.	8.ee	.
.	.	16dd#XJk	.
[4.A [4.e [4.a	[4.g# [4.b#	[4.gg#	.
=13	=13	=13	=13
4.A] 4.e] 4.a]	4.g#] 4.b#]	4gg#]	.
.	.	8ee	.
8r	4r	8dd#XL	.
8FFF#XL 8FF#X	.	8b#X	.
8CCC#XJ 8CC#X	8r	8aJ	.
*	*v	*v	*
=14	=14	=14
4.E 4.A	4.B#X 4.e 4.a 4.b#X	.
4r	16ELL	.
.	16A	.
.	16B#	.
.	16e	.
8r	16g#X	.
.	16aJJ	.
=15	=15	=15
4r	16b#XLL	.
.	16a	.
.	16g#X	.
.	16e	.
8r	16B#X	.
.	16AJJ	.
8r	8E	.
8BBB#XL 8BB#X	8r	.
8FFF#XJ 8FF#X	8r	.
!!LO:LB:g=original
=16	=16	=16
*	*^	*
4.A 4.e 4.a	4.g#X 4.b#X	8gg#XL	.
.	.	8.ee	.
.	.	16dd#XJk	.
[4.A [4.e [4.a	[4.g# [4.b#	[4.gg#	.
=17	=17	=17	=17
4.A] 4.e] 4.a]	4.g#] 4.b#]	4gg#]	.
.	.	8ee	.
8r	4r	8dd#XL	.
8FFF#XL 8FF#X	.	8b#X	.
8CCC#XJ 8CC#X	8r	8aJ	.
*	*v	*v	*
=18	=18	=18
4.E 4.A	4.B#X 4.e 4.a 4.b#X	.
4r	16ELL	.
.	16A	.
.	16B#	.
.	16e	.
8r	16g#X	.
.	16aJJ	.
=19	=19	=19
4r	16b#XLL	.
.	16a	.
.	16g#X	.
.	16e	.
8r	16B#X	.
.	16AJJ	.
8r	8E	.
8FFF##XL 8FF##X	8r	.
8CCC#XJ 8CC#X	8r	.
!!LO:LB:g=original
=20	=20	=20
*	*^	*
4.E 4.B 4.e	4.d#X 4.f##X	8dd#XL	.
.	.	8bn	.
.	.	16r	.
.	.	16a#XJk	.
[4.E [4.B [4.e	[4.d# [4.f##	[4.dd#	.
=21	=21	=21	=21
4.E] 4.B] 4.e]	4.d#] 4.f##]	4dd#]	.
.	.	8b	.
8r	4r	8a#XL	.
8CC#XL 8C#X	.	8f##X	.
8GGG#XJ 8GG#X	8r	8eJ	.
*	*v	*v	*
=22	=22	=22
4BB 4E	8F##X 8B 8e 8f##X	.
.	16F##LL	.
.	16B	.
8r	16d#X	.
.	16eJJ	.
8r	16f##LL	.
.	16e	.
8CC#XL 8C#X	16d#	.
.	16BJJ	.
8GGG#XJ 8GG#X	8F##	.
=23	=23	=23
4BB 4E	8F##X 8B 8e 8f##X	.
.	16F##LL	.
.	16B	.
8r	16d#X	.
.	16eJJ	.
8r	16f##LL	.
.	16e	.
8CC#XL 8C#X	16d#	.
.	16BJJ	.
8GGG#XJ 8GG#X	8F##	.
!!LO:LB:g=original
=24	=24	=24
4BB 4E#X	8F##X 8B 8e#X 8f##X	.
.	16F##LL	.
.	16B	.
8r	16d#X	.
.	16e#JJ	.
8r	16f##LL	.
.	16e#	.
8CC#XL 8C#X	16d#	.
.	16BJJ	.
8GGGnJ 8GGn	8F##	.
=25	=25	=25
4BB 4Fn	8A-X 8B 8fn 8a-X	.
.	16A-LL	.
.	16B	.
8r	16e	.
.	16fJJ	.
8r	16a-LL	.
.	16f	.
8BBB#XL 8BB#X	16e	.
.	16A#XJJ	.
8FFF#XJ 8FF#X	8G#X	.
=26	=26	=26
4.E 4.A#X	4.e 4.g#X 4.b#X	.
16DD#XLL 16D#X	4.c#X 4.f#X 4.b#	p <
16AAAJJ 16AA	.	(
8r	.	(
8r	.	(
=27	=27	=27
16DD#XLL 16D#X	4.c#X 4.f#X 4.b#X	(
16AAAJJ 16AA	.	(
8r	.	(
8r	.	(
16DD#LL 16D#	4.c# 4.f# 4.b#	(
16AAAJJ 16AA	.	[
8r	.	.
8r	.	.
!!LO:LB:g=original
=28	=28	=28
4r	4r	.
8r	8r	.
16DD#XLL 16D#X	4.c#X 4.f#X 4.b#X	mp
16AAAJJ 16AA	.	.
8r	.	.
8r	.	.
=29	=29	=29
16FF#XLL 16F#X	8e 8a	.
16CC#XJJ 16C#X	.	.
4A 4e 4a	4g#X 4gg#X	.
*	*^	*
16DD#XLL 16D#X	8f#XL	4.c#X 4.b#X	.
16AAAJJ 16AA	.	.	.
8r	8f##X	.	.
8r	8f#XJ	.	.
=30	=30	=30	=30
16FF#XLL 16F#X	8e#XL	4A 4a	.
16CC#XJJ 16C#X	.	.	.
8r	8enJ	.	.
*	*v	*v	*
[8A [8e [8a	[8g#X [8gg#X	.
8A] 8e] 8a]	8g#L] 8gg#]	.
8r	8ee	.
8r	8dd#XJ	.
=31	=31	=31
4r	40%3gg#XL	.
.	40%3ee	.
.	40%3dd#X	.
.	40%3b#X	.
8r	.	.
.	40%3aJ	.
*	*^	*
16DD#XLL 16D#X	8f#XL	4.c#X 4.b#	<
16AAAJJ 16AA	.	.	.
8r	8f##X	.	.
8r	8f#XJ	.	.
!!LO:LB:g=original
=32	=32	=32	=32
16FF#XLL 16F#X	8e#XL	4A 4a	.
16CC#XJJ 16C#X	.	.	.
8r	8enJ	.	.
*	*v	*v	*
[8A [8e [8a	[8g#X [8gg#X	.
8A] 8e] 8a]	8g#L] 8gg#]	.
8r	8ee	.
8r	8dd#XJ	.
=33	=33	=33
4r	32%3gg#XL	.
.	32%3ee	.
.	32%3dd#X	.
8r	.	.
.	32%3b#XJ	.
*	*^	*
16FF#XLL 16F#X	8aL	4.e 4.dd#	.
16CCnJJ 16Cn	.	.	.
8r	8a#X	.	.
8r	8anJ	.	.
=34	=34	=34	=34
16AALL 16A	8g#XL	4c 4cc	.
16EEJJ 16E	.	.	.
8r	8gnJ	.	.
*	*v	*v	*
[8c [8g [8cc	[8b [8bb	.
8c] 8g] 8cc]	8bL] 8bb]	.
8r	8gg	.
8r	8ff#XJ	.
=35	=35	=35
4r	32%3bL 32%3bb	.
.	32%3gg	.
.	32%3ff#X	.
8r	.	.
.	32%3dd#XJ	.
16AALL 16A	4g 4cc 4ff#	.
16EE-XJJ 16E-X	.	.
8r	.	.
8r	8r	.
!!LO:LB:g=original
=36	=36	=36
16FF#XLL 16F#X	8e-X 8b-X 8ee-X	.
16CCJJ 16C	.	.
8B-X 8e-X 8b-X	4dd 4ddd	.
8r	.	.
*	*^	*
16AALL 16A	8ccL	4.g 4.ff#X	.
16EE-XJJ 16E-X	.	.	.
8r	8cc#X	.	.
8r	8ccnJ	.	.
=37	=37	=37	=37
16FF#XLL 16F#X	8bnL	4e-X 4ee-X	.
16CCJJ 16C	.	.	.
8r	8b-XJ	.	.
8B-X 8e-X 8b-X	8r	8dd 8ddd	.
16AALL 16A	8ccL	4.g 4.ff#X	.
16EE-XJJ 16E-X	.	.	.
8r	8cc#X	.	.
8r	8ccnJ	.	.
=38	=38	=38	=38
16FF#XLL 16F#X	8bnL	4e-X 4ee-X	.
16CCJJ 16C	.	.	.
8r	8b-XJ	.	.
8B-X 8e-X 8b-X	8r	8dd 8ddd	.
16FF#LL 16F#	8bnL	4e- 4ee-	.
16CCJJ 16C	.	.	.
8r	8b-XJ	.	.
8B- 8e- 8b-	8r	8dd 8ddd	.
*	*v	*v	*
=39	=39	=39
8r	8r	.
8r	8r	.
8B-X 8e-X 8b-X	8dd 8ff#X 8ddd	p <
8B-L 8e- 8b-	8ddL 8ff# 8ddd	(
8FF#X 8F#X	8dd 8ff# 8ddd	(
8CCJ 8C	8ddJ 8ff# 8ddd	[
!!LO:LB:g=original
=40	=40	=40
*	*^	*
4.B-X 4.e-X 4.b-X	8ddL 8ddd	4.ff#X	f
.	8.b-X 8.bb-X	.	.
.	16aJk 16aa	.	.
[4.B- [4.e- [4.b-	[4.dd [4.ddd	[4.ff#	.
*	*v	*v	*
=41	=41	=41
4B-] 4e-] 4b-]	4dd] 4ff#] 4ddd]	.
8r	8b-X 8bb-X	.
8r	8aL 8aa	.
8CCL 8C	8f#X 8ff#X	.
8GGGJ 8GG	8e-XJ 8ee-X	.
=42	=42	=42
4.E-X 4.B-X 4.e-X	4.f#X 4.b-X 4.ee-X 4.ff#X	.
4r	16B-XLL	.
.	16e-X	.
.	16f#	.
.	16b-	.
8r	16dd	.
.	16ee-JJ	.
=43	=43	=43
4r	16ff#XLL	.
.	16ee-X	.
.	16dd	.
.	16b-X	.
8r	16f#X	.
.	16e-XJJ	.
8r	8B-X	.
8FF#XL 8F#X	8r	.
8CCJ 8C	8r	.
!!LO:LB:g=original
=44	=44	=44
*	*^	*
4.B-X 4.e-X 4.b-X	8ddL 8ddd	4.ff#X	.
.	8.b-X 8.bb-X	.	.
.	16aJk 16aa	.	.
[4.B- [4.e- [4.b-	[4.dd [4.ddd	[4.ff#	.
*	*v	*v	*
=45	=45	=45
4B-] 4e-] 4b-]	4dd] 4ff#] 4ddd]	.
8r	8b-X 8bb-X	.
8r	8aL 8aa	.
8CCL 8C	8f#X 8ff#X	.
8GGGJ 8GG	8e-XJ 8ee-X	.
=46	=46	=46
4.E-X 4.B-X 4.e-X	4.f#X 4.b-X 4.ee-X 4.ff#X	.
4r	16B-XLL	.
.	16e-X	.
.	16f#	.
.	16b-	.
8r	16dd	.
.	16ee-JJ	.
=47	=47	=47
4r	16ff#XLL	.
.	16ee-X	.
.	16dd	.
.	16b-X	.
8r	16f#X	.
.	16e-XJJ	.
8r	8B-X	.
8CC#XL 8C#X	8r	.
8GGGJ 8GG	8r	.
!!LO:LB:g=original
=48	=48	=48
*	*^	*
4.Fn 4.B-X 4.fn	8aL 8aa	4.cc#X	.
.	8.fn 8.ffn	.	.
.	16enJk 16een	.	.
[4.F [4.B- [4.f	[4.a [4.aa	[4.cc#	.
*	*v	*v	*
=49	=49	=49
4F] 4B-] 4f]	4a] 4cc#] 4aa]	.
8r	8f 8ff	.
8r	8eL 8ee	.
8GGGL 8GG	8c#X 8cc#X	.
8DDDJ 8DD	8B-XJ 8b-X	.
=50	=50	=50
8BB-X 8F 8B-X	8c#X 8f 8b-X 8cc#X	.
8r	16c#LL	.
.	16f	.
8r	16a	.
.	16b-JJ	.
8r	16cc#LL	.
.	16b-	.
8GGGL 8GG	16a	.
.	16fJJ	.
8DDDJ 8DD	8c#	.
=51	=51	=51
8BB-X 8F 8B-X	8c#X 8f 8b-X 8cc#X	.
8r	16c#LL	.
.	16f	.
8r	16a	.
.	16b-JJ	.
8r	16cc#LL	.
.	16b-	.
8GGGL 8GG	16a	.
.	16fJJ	.
8DDDJ 8DD	8c#	.
!!LO:LB:g=original
=52	=52	=52
8BBn 8F 8Bn	8c#X 8f 8bn 8cc#X	.
8r	16c#LL	.
.	16f	.
8r	16a	.
.	16bJJ	.
8r	16cc#LL	.
.	16b	.
8FFF##XL 8FF##X	16a	.
.	16fJJ	.
8CCC#XJ 8CC#X	8c#	.
=53	=53	=53
8BB 8E#X 8B	8d 8e#X 8b 8dd	.
8r	16dLL	.
.	16e#	.
8r	16a#X	.
.	16bJJ	.
8r	16ddLL	.
.	16b	.
8FFF#XL 8FF#X	16a#	.
.	16enJJ	.
8CCCnJ 8CCn	8d	.
=54	=54	=54
8BB-X 8En 8B-X	4.d 4.e 4.b-X 4.dd	.
8r	.	.
8r	.	.
16CCLL 16C	4.B-X 4.e 4.a	.
16FFF#XJJ 16FF#X	.	.
8r	.	.
8r	.	.
=55	=55	=55
16CCLL 16C	4.B-X 4.e 4.a	.
16FFF#XJJ 16FF#X	.	.
8r	.	.
8r	.	.
8r	4.B- 4.e 4.a	.
8FFF#L 8FF#	.	.
8CCCJ 8CC	.	.
!!LO:LB:g=original
=56	=56	=56
8BB-X 8E 8B-X	4.d 4.e 4.b-X 4.dd	.
8r	.	.
8r	.	.
16CCLL 16C	4.B-X 4.e 4.a	.
16FFF#XJJ 16FF#X	.	.
8r	.	.
8r	.	.
=57	=57	=57
16CCLL 16C	4.B-X 4.e 4.a	.
16FFF#XJJ 16FF#X	.	.
8r	.	.
8r	.	.
8r	4.B- 4.e 4.a	.
8FFF#L 8FF#	.	.
8CCCJ 8CC	.	.
=58	=58	=58
*	*^	*
4.BB-X 4.E 4.B-X	4.d 4.e	8ddL	.
.	.	8.b-X	.
.	.	16aJk	.
[4.BB- [4.E [4.B-	[4.d [4.e	[4.dd	.
=59	=59	=59	=59
4BB-] 4E] 4B-]	4.d] 4.e]	4dd]	.
8r	.	8b-X	.
4r	4r	4a	.
8r	8r	16r	.
.	.	16f#X	.
*	*v	*v	*
=60	=60	=60
[8qCCC [8qCC	.	.
2.CCC_ 2.CC_ [2.BB-X [2.E [2.B-X	[2.d-X [2.e [2.a	.
=61	=61	=61
2.CCC] 2.CC] 2.BB-] 2.E] 2.B-]	2.d-] 2.e] 2.a]	.
==	==	==
*-	*-	*-
!!!system-decoration: {(*)}
!!!filter: flipper -a
!!!ENC: Bryan Jacob Bell
!!!END: November 2021 to April 2022
!!!PED: Günter Philipp
!!!PTL: Ausgewählte Klavierwerke (Edition Peters)
